**harm	**harte	**silbe	**silbe	**rhyme	**timestamp	**phrase	**leadinstrument	**kern
*M4/4	*M4/4	*	*	*	*	*	*	*
*	*	*	*	*	*	*	*	*
*	*	*	*	*	*	*	*	*
*B-:	*B-:	*	*	*	*	*	*	*B-:
*	*	*	*	*	*	*	*	*
*	*	*	*	*	*	*	*	*
1r;	N	.	.	.	0	.	r	1r;
1r;	N	.	.	.	2.276	.	r	1r;
=1	=1	=1	=1	=1	=1	=1	=1	=1
*>Letter>A	*>Letter>A	*>Letter>A	*>Letter>A	*>Letter>A	*>Letter>A	*>Letter>A	*>Letter>A	*>Letter>A
*>Label>Intro	*>Label>Intro	*>Label>Intro	*>Label>Intro	*>Label>Intro	*>Label>Intro	*>Label>Intro	*>Label>Intro	*>Label>Intro
1V	F:maj(9)	.	.	.	7.802	newline	synthesizer	1F 1a 1cc
=2	=2	=2	=2	=2	=2	=2	=2	=2
1V	F:maj(9)	.	.	.	9.275	.	synthesizer	1F 1a 1cc
=3	=3	=3	=3	=3	=3	=3	=3	=3
1iv	E-:min6(#11)	.	.	.	10.747	.	synthesizer	1E- 1g- 1b-
=4	=4	=4	=4	=4	=4	=4	=4	=4
1iv	E-:min6(#11)	.	.	.	12.22	.	synthesizer	1E- 1g- 1b-
=5	=5	=5	=5	=5	=5	=5	=5	=5
1I	B-:maj	.	.	.	13.693	.	synthesizer	1B- 1dd 1ff
=6	=6	=6	=6	=6	=6	=6	=6	=6
1I	B-:maj	.	.	.	15.165	.	synthesizer	1B- 1dd 1ff
=7	=7	=7	=7	=7	=7	=7	=7	=7
1I	B-:maj	.	.	.	16.638	.	synthesizer	1B- 1dd 1ff
=8	=8	=8	=8	=8	=8	=8	=8	=8
1I	B-:maj	.	.	.	18.111	.	synthesizer	1B- 1dd 1ff
=9	=9	=9	=9	=9	=9	=9	=9	=9
1V	F:maj(9)	.	.	.	19.583	newline	synthesizer	1F 1a 1cc
=10	=10	=10	=10	=10	=10	=10	=10	=10
1V	F:maj(9)	.	.	.	20.99	.	synthesizer	1F 1a 1cc
=11	=11	=11	=11	=11	=11	=11	=11	=11
1IV7	E-:maj9(13,#11)	.	.	.	22.397	.	synthesizer	1E- 1g 1b- 1dd
=12	=12	=12	=12	=12	=12	=12	=12	=12
1IV7	E-:maj9(13,#11)	.	.	.	23.803	.	synthesizer	1E- 1g 1b- 1dd
=13	=13	=13	=13	=13	=13	=13	=13	=13
1I	B-:maj	.	.	.	25.21	.	synthesizer	1B- 1dd 1ff
=14	=14	=14	=14	=14	=14	=14	=14	=14
1I	B-:maj	.	.	.	26.617	.	synthesizer	1B- 1dd 1ff
=15	=15	=15	=15	=15	=15	=15	=15	=15
1I	B-:maj	.	.	.	28.024	.	synthesizer	1B- 1dd 1ff
=16	=16	=16	=16	=16	=16	=16	=16	=16
1I	B-:maj	.	.	.	29.43	.	synthesizer	1B- 1dd 1ff
.	.	.	.	.	.	.	.	.
.	.	As	.	.	.	.	.	.
.	.	the	.	.	.	.	.	.
=17	=17	=17	=17	=17	=17	=17	=17	=17
*>Letter>B	*>Letter>B	*>Letter>B	*>Letter>B	*>Letter>B	*>Letter>B	*>Letter>B	*>Letter>B	*>Letter>B
*>Label>Verse	*>Label>Verse	*>Label>Verse	*>Label>Verse	*>Label>Verse	*>Label>Verse	*>Label>Verse	*>Label>Verse	*>Label>Verse
1I	B-:maj	sun	.	.	30.837	newline	voice	1B- 1dd 1ff
.	.	goes	.	.	.	.	.	.
.	.	down	.	.	.	.	.	.
.	.	_	.	.	.	.	.	.
.	.	on	.	.	.	.	.	.
.	.	the	.	.	.	.	.	.
=18	=18	=18	=18	=18	=18	=18	=18	=18
1I	B-:maj	A-	.	.	32.238	.	voice	1B- 1dd 1ff
.	.	-ri-	.	.	.	.	.	.
.	.	-zo-	.	.	.	.	.	.
.	.	-na	.	.	.	.	.	.
.	.	plain,	.	A	.	.	.	.
.	.	_	.	.	.	.	.	.
.	.	and	.	.	.	.	.	.
.	.	the	.	.	.	.	.	.
=19	=19	=19	=19	=19	=19	=19	=19	=19
1IV	E-:sus4(b7,9)	wind	.	.	33.638	.	voice	1E- 1g 1b-
.	.	whist-	.	.	.	.	.	.
.	.	-les	.	.	.	.	.	.
.	.	by	.	.	.	.	.	.
.	.	_	.	.	.	.	.	.
.	.	like	.	.	.	.	.	.
.	.	a	.	.	.	.	.	.
=20	=20	=20	=20	=20	=20	=20	=20	=20
1IV	E-:sus4(b7,9)	run-	.	.	35.039	.	voice	1E- 1g 1b-
.	.	-a-	.	.	.	.	.	.
.	.	-way	.	.	.	.	.	.
.	.	train,	.	A	.	.	.	.
.	.	_	.	.	.	.	.	.
.	.	hey	.	A	.	.	.	.
.	.	hey	.	A	.	.	.	.
.	.	hey...	.	A	.	.	.	.
=21	=21	=21	=21	=21	=21	=21	=21	=21
1I	B-:maj	.	.	.	36.44	.	voice	1B- 1dd 1ff
=22	=22	=22	=22	=22	=22	=22	=22	=22
1I	B-:maj	.	.	.	37.841	.	voice	1B- 1dd 1ff
.	.	...it's	.	.	.	.	.	.
.	.	a	.	.	.	.	.	.
.	.	beau-	.	.	.	.	.	.
.	.	-ti-	.	.	.	.	.	.
.	.	-ful	.	.	.	.	.	.
.	.	thing	.	B	.	.	.	.
=23	=23	=23	=23	=23	=23	=23	=23	=23
1vi7	G:min7	_	.	.	39.242	.	voice	1G 1b- 1dd 1ff
.	.	.	.	.	.	.	.	.
.	.	.	.	.	.	.	.	.
.	.	.	.	.	.	.	.	.
=24	=24	=24	=24	=24	=24	=24	=24	=24
1-VII	A-:maj(9)	.	.	.	40.642	.	voice	1A- 1cc 1ee-
.	.	.	.	.	.	.	.	.
.	.	Well,	.	.	.	.	.	.
.	.	_	.	.	.	.	.	.
.	.	it's	.	.	.	.	.	.
=25	=25	=25	=25	=25	=25	=25	=25	=25
1I	B-:maj	me	.	.	42.043	newline	voice	1B- 1dd 1ff
.	.	and	.	.	.	.	.	.
.	.	_	.	.	.	.	.	.
.	.	you	.	.	.	.	.	.
.	.	_	.	.	.	.	.	.
.	.	and	.	.	.	.	.	.
.	.	a	.	.	.	.	.	.
=26	=26	=26	=26	=26	=26	=26	=26	=26
1I	B-:maj	flat-	.	.	43.451	.	voice	1B- 1dd 1ff
.	.	-bed	.	.	.	.	.	.
.	.	truck,	.	C	.	.	.	.
.	.	_	.	.	.	.	.	.
.	.	and	.	.	.	.	.	.
.	.	my	.	.	.	.	.	.
=27	=27	=27	=27	=27	=27	=27	=27	=27
1IV	E-:sus4(b7,9)	heart	.	.	44.86	.	voice	1E- 1g 1b-
.	.	ki-	.	.	.	.	.	.
.	.	-cking	.	.	.	.	.	.
.	.	o-	.	.	.	.	.	.
.	.	-ver	.	.	.	.	.	.
.	.	like	.	.	.	.	.	.
.	.	a	.	.	.	.	.	.
=28	=28	=28	=28	=28	=28	=28	=28	=28
1IV	E-:sus4(b7,9)	white-	.	.	46.268	.	voice	1E- 1g 1b-
.	.	-tailed	.	.	.	.	.	.
.	.	buck,	.	C	.	.	.	.
.	.	huh	.	C	.	.	.	.
.	.	huh	.	C	.	.	.	.
.	.	huh...	.	C	.	.	.	.
=29	=29	=29	=29	=29	=29	=29	=29	=29
1I	B-:maj	.	.	.	47.676	.	voice	1B- 1dd 1ff
=30	=30	=30	=30	=30	=30	=30	=30	=30
1I	B-:maj	.	.	.	49.084	.	voice	1B- 1dd 1ff
.	.	...n'	.	.	.	.	.	.
.	.	in	.	.	.	.	.	.
.	.	the	.	.	.	.	.	.
.	.	mid-	.	.	.	.	.	.
.	.	-dle	.	.	.	.	.	.
.	.	of	.	.	.	.	.	.
.	.	spring	.	B	.	.	.	.
=31	=31	=31	=31	=31	=31	=31	=31	=31
1vi7	G:min7	_	.	.	50.492	.	voice	1G 1b- 1dd 1ff
.	.	.	.	.	.	.	.	.
.	.	.	.	.	.	.	.	.
.	.	.	.	.	.	.	.	.
=32	=32	=32	=32	=32	=32	=32	=32	=32
1-VII	A-:maj(9)	.	.	.	51.901	.	voice	1A- 1cc 1ee-
.	.	.	.	.	.	.	.	.
.	.	You	.	.	.	.	.	.
.	.	can	.	.	.	.	.	.
=33	=33	=33	=33	=33	=33	=33	=33	=33
*>Letter>C	*>Letter>C	*>Letter>C	*>Letter>C	*>Letter>C	*>Letter>C	*>Letter>C	*>Letter>C	*>Letter>C
*>Label>Prechorus	*>Label>Prechorus	*>Label>Prechorus	*>Label>Prechorus	*>Label>Prechorus	*>Label>Prechorus	*>Label>Prechorus	*>Label>Prechorus	*>Label>Prechorus
1ii	C:sus4(b7)	cut	.	.	53.309	newline	voice	1C 1e- 1g
.	.	me	.	.	.	.	.	.
.	.	_	.	.	.	.	.	.
.	.	deep,	.	.	.	.	.	.
.	.	_	.	.	.	.	.	.
.	.	you	.	.	.	.	.	.
.	.	can	.	.	.	.	.	.
=34	=34	=34	=34	=34	=34	=34	=34	=34
1II7	C:7	cut	.	.	54.715	.	voice	1C 1e 1g 1b-
.	.	me	.	.	.	.	.	.
.	.	_	.	.	.	.	.	.
.	.	down,	.	.	.	.	.	.
.	.	_	.	.	.	.	.	.
.	.	you	.	.	.	.	.	.
.	.	can	.	.	.	.	.	.
=35	=35	=35	=35	=35	=35	=35	=35	=35
1IV	E-:maj6(9)	cut	.	.	56.121	.	voice	1E- 1g 1b-
.	.	me	.	.	.	.	.	.
.	.	_	.	.	.	.	.	.
.	.	loose	.	.	.	.	.	.
.	.	_	.	.	.	.	.	.
.	.	.	.	.	.	.	.	.
=36	=36	=36	=36	=36	=36	=36	=36	=36
1IV	E-:maj6(9)	.	.	.	57.527	.	voice	1E- 1g 1b-
.	.	Don't	.	.	.	.	.	.
.	.	you	.	.	.	.	.	.
.	.	know	.	.	.	.	.	.
.	.	it's	.	.	.	.	.	.
.	.	o-	.	.	.	.	.	.
.	.	-kay?	.	A	.	.	.	.
=37	=37	=37	=37	=37	=37	=37	=37	=37
1I	B-:maj	_	.	.	58.933	.	voice	1B- 1dd 1ff
.	.	_	.	.	.	.	.	.
.	.	.	.	.	.	.	.	.
.	.	.	.	.	.	.	.	.
=38	=38	=38	=38	=38	=38	=38	=38	=38
4-VII	A-:maj	.	.	.	60.339	.	voice	2A- 2cc 2ee-
4I	B-:maj6	.	.	.	60.691	.	voice	4B- 4dd 4ff
2I	B-:maj	.	.	.	61.042	.	voice	2B- 2dd 2ff
.	.	Hey,	.	A	.	.	.	.
.	.	_	.	.	.	.	.	.
.	.	hey!	.	A	.	.	.	.
=39	=39	=39	=39	=39	=39	=39	=39	=39
1I	B-:maj	_	.	.	61.746	.	voice	1B- 1dd 1ff
.	.	_	.	.	.	.	.	.
.	.	.	.	.	.	.	.	.
.	.	.	.	.	.	.	.	.
=40	=40	=40	=40	=40	=40	=40	=40	=40
4-VII	A-:maj	.	.	.	63.152	.	voice	2A- 2cc 2ee-
4I	B-:maj6	.	.	.	63.503	.	voice	4B- 4dd 4ff
2I	B-:maj	.	.	.	63.855	.	voice	2B- 2dd 2ff
.	.	You	.	.	.	.	.	.
.	.	can	.	.	.	.	.	.
=41	=41	=41	=41	=41	=41	=41	=41	=41
1vi7	G:min7(11)	kick	.	.	64.558	newline	voice	1G 1b- 1dd 1ff
.	.	and	.	.	.	.	.	.
.	.	_	.	.	.	.	.	.
.	.	scream,	.	.	.	.	.	.
.	.	_	.	.	.	.	.	.
.	.	you	.	.	.	.	.	.
.	.	can	.	.	.	.	.	.
=42	=42	=42	=42	=42	=42	=42	=42	=42
1vi7	G:min7(11)	slap	.	.	65.962	.	voice	1G 1b- 1dd 1ff
.	.	my	.	.	.	.	.	.
.	.	face,	.	D	.	.	.	.
.	.	.	.	.	.	.	.	.
=43	=43	=43	=43	=43	=43	=43	=43	=43
1ii	C:sus4(b7)	set	.	.	67.366	.	voice	1C 1e- 1g
.	.	my	.	.	.	.	.	.
.	.	whe-	.	.	.	.	.	.
.	.	-els	.	.	.	.	.	.
.	.	on	.	.	.	.	.	.
.	.	a	.	.	.	.	.	.
=44	=44	=44	=44	=44	=44	=44	=44	=44
1II7	C:7	high	.	.	68.77	.	voice	1C 1e 1g 1b-
.	.	speed	.	.	.	.	.	.
.	.	chase,	.	D	.	.	.	.
.	.	on	.	.	.	.	.	.
=45	=45	=45	=45	=45	=45	=45	=45	=45
1IV	E-:maj6(9)	you	.	E	70.174	.	voice	1E- 1g 1b-
.	.	.	.	.	.	.	.	.
.	.	.	.	.	.	.	.	.
=46	=46	=46	=46	=46	=46	=46	=46	=46
1IV	E-:maj6(9)	.	.	.	71.579	.	voice	1E- 1g 1b-
.	.	no	.	.	.	.	.	.
.	.	mat-	.	.	.	.	.	.
.	.	-ter	.	.	.	.	.	.
.	.	what	.	.	.	.	.	.
.	.	you	.	.	.	.	.	.
.	.	do!	.	E	.	.	.	.
=47	=47	=47	=47	=47	=47	=47	=47	=47
1V	F:sus4(9)	_	.	.	72.983	.	voice	1F 1a 1cc
.	.	.	.	.	.	.	.	.
.	.	.	.	.	.	.	.	.
.	.	.	.	.	.	.	.	.
=48	=48	=48	=48	=48	=48	=48	=48	=48
1V	F:sus4(9)	.	.	.	74.387	.	voice	1F 1a 1cc
=49	=49	=49	=49	=49	=49	=49	=49	=49
*>Letter>A	*>Letter>A	*>Letter>A	*>Letter>A	*>Letter>A	*>Letter>A	*>Letter>A	*>Letter>A	*>Letter>A
*>Label>Chorus	*>Label>Chorus	*>Label>Chorus	*>Label>Chorus	*>Label>Chorus	*>Label>Chorus	*>Label>Chorus	*>Label>Chorus	*>Label>Chorus
1V	F:maj(9)	.	.	.	75.791	newline	voice	1F 1a 1cc
.	.	.	.	.	.	.	.	.
.	.	Wild	.	.	.	.	.	.
=50	=50	=50	=50	=50	=50	=50	=50	=50
1V	F:maj(9)	hor-	.	.	77.199	.	voice	1F 1a 1cc
.	.	-ses	.	.	.	.	.	.
.	.	could	.	.	.	.	.	.
.	.	_	.	.	.	.	.	.
.	.	not	.	.	.	.	.	.
=51	=51	=51	=51	=51	=51	=51	=51	=51
.	.	_	.	.	.	.	.	.
1IV7	E-:maj9(13,#11)	drag	.	.	78.606	.	voice	1E- 1g 1b- 1dd
.	.	me	.	.	.	.	.	.
.	.	_	.	.	.	.	.	.
.	.	a-	.	.	.	.	.	.
.	.	-way	.	A	.	.	.	.
=52	=52	=52	=52	=52	=52	=52	=52	=52
1IV7	E-:maj9(13,#11)	_	.	.	80.014	.	voice	1E- 1g 1b- 1dd
.	.	_	.	.	.	.	.	.
.	.	_	.	.	.	.	.	.
.	.	.	.	.	.	.	.	.
.	.	.	.	.	.	.	.	.
.	.	.	.	.	.	.	.	.
.	.	from	.	.	.	.	.	.
=53	=53	=53	=53	=53	=53	=53	=53	=53
.	.	_	.	.	.	.	.	.
1I	B-:maj	you.	.	E	81.421	.	voice	1B- 1dd 1ff
.	.	.	.	.	.	.	.	.
.	.	.	.	.	.	.	.	.
=54	=54	=54	=54	=54	=54	=54	=54	=54
1I	B-:maj	.	.	.	82.828	.	voice	1B- 1dd 1ff
=55	=55	=55	=55	=55	=55	=55	=55	=55
1I	B-:maj	.	.	.	84.236	.	voice	1B- 1dd 1ff
=56	=56	=56	=56	=56	=56	=56	=56	=56
1I	B-:maj	.	.	.	85.643	.	voice	1B- 1dd 1ff
=57	=57	=57	=57	=57	=57	=57	=57	=57
1V	F:maj(9)	.	.	.	87.051	newline	voice	1F 1a 1cc
.	.	.	.	.	.	.	.	.
.	.	_	.	.	.	.	.	.
.	.	Wild	.	.	.	.	.	.
=58	=58	=58	=58	=58	=58	=58	=58	=58
1V	F:maj(9)	hor-	.	.	88.457	.	voice	1F 1a 1cc
.	.	-ses	.	.	.	.	.	.
.	.	could	.	.	.	.	.	.
.	.	_	.	.	.	.	.	.
.	.	not	.	.	.	.	.	.
=59	=59	=59	=59	=59	=59	=59	=59	=59
.	.	_	.	.	.	.	.	.
1IV7	E-:maj9(13,#11)	drag	.	.	89.863	.	voice	1E- 1g 1b- 1dd
.	.	me	.	.	.	.	.	.
.	.	_	.	.	.	.	.	.
.	.	a-	.	.	.	.	.	.
.	.	-way	.	A	.	.	.	.
=60	=60	=60	=60	=60	=60	=60	=60	=60
1IV7	E-:maj9(13,#11)	.	.	.	91.269	.	voice	1E- 1g 1b- 1dd
.	.	.	.	.	.	.	.	.
.	.	_	.	.	.	.	.	.
.	.	from	.	.	.	.	.	.
=61	=61	=61	=61	=61	=61	=61	=61	=61
1I	B-:maj	you!	.	E	92.675	.	voice	1B- 1dd 1ff
.	.	_	.	.	.	.	.	.
.	.	_	.	.	.	.	.	.
.	.	.	.	.	.	.	.	.
=62	=62	=62	=62	=62	=62	=62	=62	=62
1I	B-:maj	.	.	.	94.081	.	voice	1B- 1dd 1ff
=63	=63	=63	=63	=63	=63	=63	=63	=63
1I	B-:maj	.	.	.	95.487	.	voice	1B- 1dd 1ff
=64	=64	=64	=64	=64	=64	=64	=64	=64
1I	B-:maj	.	.	.	96.893	.	voice	1B- 1dd 1ff
.	.	.	.	.	.	.	.	.
.	.	As	.	.	.	.	.	.
.	.	the	.	.	.	.	.	.
=65	=65	=65	=65	=65	=65	=65	=65	=65
*>Letter>B	*>Letter>B	*>Letter>B	*>Letter>B	*>Letter>B	*>Letter>B	*>Letter>B	*>Letter>B	*>Letter>B
*>Label>Verse	*>Label>Verse	*>Label>Verse	*>Label>Verse	*>Label>Verse	*>Label>Verse	*>Label>Verse	*>Label>Verse	*>Label>Verse
1I	B-:maj	sky	.	.	98.299	newline	voice	1B- 1dd 1ff
.	.	falls	.	.	.	.	.	.
.	.	down	.	.	.	.	.	.
.	.	from	.	.	.	.	.	.
.	.	the	.	.	.	.	.	.
=66	=66	=66	=66	=66	=66	=66	=66	=66
1I	B-:maj	mid-	.	.	99.705	.	voice	1B- 1dd 1ff
.	.	-night	.	.	.	.	.	.
.	.	_	.	.	.	.	.	.
.	.	blue,	.	E	.	.	.	.
.	.	_	.	.	.	.	.	.
.	.	.	.	.	.	.	.	.
=67	=67	=67	=67	=67	=67	=67	=67	=67
1IV	E-:sus4(b7,9)	spit-	.	.	101.111	.	voice	1E- 1g 1b-
.	.	-tin'	.	.	.	.	.	.
.	.	like	.	.	.	.	.	.
.	.	bul-	.	.	.	.	.	.
.	.	-lets	.	.	.	.	.	.
.	.	on	.	.	.	.	.	.
.	.	a	.	.	.	.	.	.
=68	=68	=68	=68	=68	=68	=68	=68	=68
*	*	*	*	*	*	*	*	*
1IV	E-:sus4(b7,9)	hot	.	.	102.517	.	voice	1E- 1g 1b-
.	.	tin	.	.	.	.	.	.
.	.	roof,	.	E	.	.	.	.
.	.	a'	.	.	.	.	.	.
.	.	hey	.	.	.	.	.	.
.	.	hey	.	.	.	.	.	.
=69	=69	=69	=69	=69	=69	=69	=69	=69
1I	B-:maj	.	.	.	103.923	.	voice	1B- 1dd 1ff
.	.	.	.	.	.	.	.	.
.	.	.	.	.	.	.	.	.
=70	=70	=70	=70	=70	=70	=70	=70	=70
1I	B-:maj	.	.	.	105.33	.	voice	1B- 1dd 1ff
.	.	...it's	.	.	.	.	.	.
.	.	a	.	.	.	.	.	.
.	.	beau-	.	.	.	.	.	.
.	.	-ti-	.	.	.	.	.	.
.	.	-ful	.	.	.	.	.	.
.	.	sound	.	F	.	.	.	.
=71	=71	=71	=71	=71	=71	=71	=71	=71
1vi7	G:min7	_	.	.	106.736	.	voice	1G 1b- 1dd 1ff
.	.	.	.	.	.	.	.	.
=72	=72	=72	=72	=72	=72	=72	=72	=72
1-VII	A-:maj(9)	.	.	.	108.142	.	voice	1A- 1cc 1ee-
.	.	.	.	.	.	.	.	.
.	.	A'	A'	.	.	.	.	.
.	.	well,	well,	.	.	.	.	.
.	.	it's	it's	.	.	.	.	.
=73	=73	=73	=73	=73	=73	=73	=73	=73
.	.	_	.	.	.	.	.	.
1I	B-:maj	me	me	.	109.548	newline	voice	1B- 1dd 1ff
.	.	.	_	.	.	.	.	.
.	.	and	and	.	.	.	.	.
.	.	_	_	.	.	.	.	.
.	.	you,	you,	.	.	.	.	.
.	.	_	_	.	.	.	.	.
.	.	and	and	.	.	.	.	.
.	.	a	a	.	.	.	.	.
=74	=74	=74	=74	=74	=74	=74	=74	=74
.	.	.	_	.	.	.	.	.
1I	B-:maj	flat-	flat-	.	110.948	.	voice	1B- 1dd 1ff
.	.	_	_	.	.	.	.	.
.	.	-bed	-bed	.	.	.	.	.
.	.	truck,	truck,	B	.	.	.	.
.	.	in	in	.	.	.	.	.
.	.	a	a	.	.	.	.	.
=75	=75	=75	=75	=75	=75	=75	=75	=75
.	.	.	_	.	.	.	.	.
1IV	E-:sus4(b7,9)	foot	foot	.	112.348	.	voice	1E- 1g 1b-
.	.	a'	a'	.	.	.	.	.
.	.	red	red	.	.	.	.	.
.	.	mud,	mud,	.	.	.	.	.
.	.	_	_	.	.	.	.	.
.	.	_	_	.	.	.	.	.
.	.	just	just	.	.	.	.	.
=76	=76	=76	=76	=76	=76	=76	=76	=76
1IV	E-:sus4(b7,9)	_	_	.	113.748	.	voice	1E- 1g 1b-
.	.	my	my	.	.	.	.	.
.	.	_	_	.	.	.	.	.
.	.	luck,	luck!	B	.	.	.	.
.	.	_	_	.	.	.	.	.
.	.	a'	.	.	.	.	.	.
.	.	hey	.	.	.	.	.	.
.	.	hey!	.	.	.	.	.	.
=77	=77	=77	=77	=77	=77	=77	=77	=77
1I	B-:maj	_	.	.	115.148	.	voice	1B- 1dd 1ff
.	.	_	.	.	.	.	.	.
.	.	_	.	.	.	.	.	.
.	.	.	.	.	.	.	.	.
=78	=78	=78	=78	=78	=78	=78	=78	=78
1I	B-:maj	.	.	.	116.548	.	voice	1B- 1dd 1ff
.	.	A'	.	.	.	.	.	.
.	.	hun-	.	.	.	.	.	.
.	.	-dred	.	.	.	.	.	.
.	.	miles	.	.	.	.	.	.
.	.	out-	.	.	.	.	.	.
.	.	-ta	.	.	.	.	.	.
=79	=79	=79	=79	=79	=79	=79	=79	=79
1vi7	G:min7	town	.	F	117.948	.	voice	1G 1b- 1dd 1ff
.	.	_	.	.	.	.	.	.
.	.	.	.	.	.	.	.	.
=80	=80	=80	=80	=80	=80	=80	=80	=80
1-VII	A-:maj(9)	.	.	.	119.348	.	voice	1A- 1cc 1ee-
.	.	.	.	.	.	.	.	.
.	.	You	.	.	.	.	.	.
.	.	can	.	.	.	.	.	.
=81	=81	=81	=81	=81	=81	=81	=81	=81
*>Letter>C	*>Letter>C	*>Letter>C	*>Letter>C	*>Letter>C	*>Letter>C	*>Letter>C	*>Letter>C	*>Letter>C
*>Label>Prechorus	*>Label>Prechorus	*>Label>Prechorus	*>Label>Prechorus	*>Label>Prechorus	*>Label>Prechorus	*>Label>Prechorus	*>Label>Prechorus	*>Label>Prechorus
1ii	C:sus4(b7)	call	.	.	120.748	newline	voice	1C 1e- 1g
.	.	me	.	.	.	.	.	.
.	.	a	.	.	.	.	.	.
.	.	fool,	.	.	.	.	.	.
.	.	_	.	.	.	.	.	.
.	.	you	.	.	.	.	.	.
.	.	can	.	.	.	.	.	.
=82	=82	=82	=82	=82	=82	=82	=82	=82
1II7	C:7	call	.	.	122.162	.	voice	1C 1e 1g 1b-
.	.	me	.	.	.	.	.	.
.	.	_	.	.	.	.	.	.
.	.	blind,	.	.	.	.	.	.
.	.	_	.	.	.	.	.	.
.	.	you	.	.	.	.	.	.
.	.	can	.	.	.	.	.	.
=83	=83	=83	=83	=83	=83	=83	=83	=83
1IV	E-:maj6(9)	call	.	.	123.576	.	voice	1E- 1g 1b-
.	.	it	.	.	.	.	.	.
.	.	_	.	.	.	.	.	.
.	.	quits,	.	.	.	.	.	.
.	.	_	.	.	.	.	.	.
.	.	.	.	.	.	.	.	.
=84	=84	=84	=84	=84	=84	=84	=84	=84
1IV	E-:maj6(9)	.	.	.	124.991	.	voice	1E- 1g 1b-
.	.	can't	.	.	.	.	.	.
.	.	hear	.	.	.	.	.	.
.	.	a	.	.	.	.	.	.
.	.	word	.	.	.	.	.	.
.	.	that	.	.	.	.	.	.
.	.	you	.	.	.	.	.	.
.	.	say	.	A	.	.	.	.
=85	=85	=85	=85	=85	=85	=85	=85	=85
1I	B-:maj	_	.	.	126.405	.	voice	1B- 1dd 1ff
.	.	_	.	.	.	.	.	.
.	.	.	.	.	.	.	.	.
.	.	.	.	.	.	.	.	.
=86	=86	=86	=86	=86	=86	=86	=86	=86
4-VII	A-:maj	.	.	.	127.819	.	voice	2A- 2cc 2ee-
4I	B-:maj6	.	.	.	128.172	.	voice	4B- 4dd 4ff
2I	B-:maj	.	.	.	128.526	.	voice	2B- 2dd 2ff
.	.	A'	.	.	.	.	.	.
.	.	hey	.	A	.	.	.	.
.	.	_	.	.	.	.	.	.
=87	=87	=87	=87	=87	=87	=87	=87	=87
1I	B-:maj	_	.	.	129.233	.	voice	1B- 1dd 1ff
.	.	.	.	.	.	.	.	.
=88	=88	=88	=88	=88	=88	=88	=88	=88
4-VII	A-:maj	.	.	.	130.647	.	voice	2A- 2cc 2ee-
4I	B-:maj6	.	.	.	131.001	.	voice	4B- 4dd 4ff
2I	B-:maj	.	.	.	131.354	.	voice	2B- 2dd 2ff
.	.	'Cause	.	.	.	.	.	.
.	.	if	.	.	.	.	.	.
.	.	I	.	.	.	.	.	.
=89	=89	=89	=89	=89	=89	=89	=89	=89
1vi7	G:min7(11)	had	.	.	132.061	newline	voice	1G 1b- 1dd 1ff
.	.	you	.	.	.	.	.	.
.	.	_	.	.	.	.	.	.
.	.	once,	.	.	.	.	.	.
.	.	_	.	.	.	.	.	.
.	.	I'm	.	.	.	.	.	.
.	.	gon-	.	.	.	.	.	.
.	.	-na	.	.	.	.	.	.
=90	=90	=90	=90	=90	=90	=90	=90	=90
1vi7	G:min7(11)	have	.	.	133.461	.	voice	1G 1b- 1dd 1ff
.	.	you	.	.	.	.	.	.
.	.	twice,	.	G	.	.	.	.
.	.	.	.	.	.	.	.	.
.	.	I	.	.	.	.	.	.
=91	=91	=91	=91	=91	=91	=91	=91	=91
1ii	C:sus4(b7)	fol-	.	.	134.861	.	voice	1C 1e- 1g
.	.	-low	.	.	.	.	.	.
.	.	my	.	.	.	.	.	.
.	.	heart	.	.	.	.	.	.
.	.	in-	.	.	.	.	.	.
.	.	-stead	.	.	.	.	.	.
.	.	of	.	.	.	.	.	.
=92	=92	=92	=92	=92	=92	=92	=92	=92
1II7	C:7	.	.	.	136.261	.	voice	1C 1e 1g 1b-
.	.	good	.	.	.	.	.	.
.	.	ad-	.	.	.	.	.	.
.	.	-vice,	.	G	.	.	.	.
.	.	_	.	.	.	.	.	.
.	.	hey,	.	.	.	.	.	.
.	.	_	.	.	.	.	.	.
.	.	you,	.	.	.	.	.	.
=93	=93	=93	=93	=93	=93	=93	=93	=93
1IV	E-:maj6(9)	_	.	.	137.66	.	voice	1E- 1g 1b-
.	.	_	.	.	.	.	.	.
.	.	_	.	.	.	.	.	.
.	.	.	.	.	.	.	.	.
=94	=94	=94	=94	=94	=94	=94	=94	=94
1IV	E-:maj6(9)	.	.	.	139.06	.	voice	1E- 1g 1b-
.	.	no	.	.	.	.	.	.
.	.	mat-	.	.	.	.	.	.
.	.	-ter	.	.	.	.	.	.
.	.	what	.	.	.	.	.	.
.	.	you	.	E	.	.	.	.
.	.	_	.	.	.	.	.	.
.	.	do!	.	E	.	.	.	.
=95	=95	=95	=95	=95	=95	=95	=95	=95
1V	F:sus4(9)	_	.	.	140.46	.	voice	1F 1a 1cc
.	.	_	.	.	.	.	.	.
.	.	_	.	.	.	.	.	.
.	.	_	.	.	.	.	.	.
=96	=96	=96	=96	=96	=96	=96	=96	=96
1V	F:sus4(9)	.	.	.	141.86	.	voice	1F 1a 1cc
=97	=97	=97	=97	=97	=97	=97	=97	=97
*>Letter>A	*>Letter>A	*>Letter>A	*>Letter>A	*>Letter>A	*>Letter>A	*>Letter>A	*>Letter>A	*>Letter>A
*>Label>Chorus	*>Label>Chorus	*>Label>Chorus	*>Label>Chorus	*>Label>Chorus	*>Label>Chorus	*>Label>Chorus	*>Label>Chorus	*>Label>Chorus
1V	F:maj(9)	.	.	.	143.259	newline	voice	1F 1a 1cc
.	.	.	.	.	.	.	.	.
.	.	Wild	Wild	.	.	.	.	.
=98	=98	=98	=98	=98	=98	=98	=98	=98
1V	F:maj(9)	hor-	hor-	.	144.673	.	voice	1F 1a 1cc
.	.	-ses	-ses	.	.	.	.	.
.	.	could	could	.	.	.	.	.
.	.	_	.	.	.	.	.	.
.	.	not	not	.	.	.	.	.
=99	=99	=99	=99	=99	=99	=99	=99	=99
.	.	_	_	.	.	.	.	.
1IV7	E-:maj9(13,#11)	drag	_	.	146.087	.	voice	1E- 1g 1b- 1dd
.	.	me	me	.	.	.	.	.
.	.	_	_	.	.	.	.	.
.	.	a-	a-	.	.	.	.	.
.	.	-way	-way	A	.	.	.	.
=100	=100	=100	=100	=100	=100	=100	=100	=100
1IV7	E-:maj9(13,#11)	_	_	.	147.501	.	voice	1E- 1g 1b- 1dd
.	.	_	.	.	.	.	.	.
.	.	_	.	.	.	.	.	.
.	.	.	.	.	.	.	.	.
.	.	.	.	.	.	.	.	.
.	.	.	.	.	.	.	.	.
.	.	from	.	.	.	.	.	.
=101	=101	=101	=101	=101	=101	=101	=101	=101
1I	B-:maj	you.	.	E	148.914	.	voice	1B- 1dd 1ff
.	.	.	.	.	.	.	.	.
.	.	.	.	.	.	.	.	.
=102	=102	=102	=102	=102	=102	=102	=102	=102
1I	B-:maj	.	.	.	150.328	.	voice	1B- 1dd 1ff
=103	=103	=103	=103	=103	=103	=103	=103	=103
1I	B-:maj	.	.	.	151.742	.	voice	1B- 1dd 1ff
=104	=104	=104	=104	=104	=104	=104	=104	=104
1I	B-:maj	.	.	.	153.156	.	voice	1B- 1dd 1ff
=105	=105	=105	=105	=105	=105	=105	=105	=105
1V	F:maj(9)	.	.	.	154.569	newline	voice	1F 1a 1cc
.	.	.	.	.	.	.	.	.
.	.	_	.	.	.	.	.	.
.	.	Wild	Wild	.	.	.	.	.
=106	=106	=106	=106	=106	=106	=106	=106	=106
1V	F:maj(9)	hor-	hor-	.	155.964	.	voice	1F 1a 1cc
.	.	-ses	-ses	.	.	.	.	.
.	.	could	could	.	.	.	.	.
.	.	_	.	.	.	.	.	.
.	.	not	not	.	.	.	.	.
=107	=107	=107	=107	=107	=107	=107	=107	=107
.	.	_	_	.	.	.	.	.
1IV7	E-:maj9(13,#11)	drag	_	.	157.36	.	voice	1E- 1g 1b- 1dd
.	.	me	me	.	.	.	.	.
.	.	_	_	.	.	.	.	.
.	.	a-	a-	.	.	.	.	.
.	.	-way	-way	A	.	.	.	.
=108	=108	=108	=108	=108	=108	=108	=108	=108
1IV7	E-:maj9(13,#11)	.	.	.	158.755	.	voice	1E- 1g 1b- 1dd
.	.	.	.	.	.	.	.	.
.	.	from	.	.	.	.	.	.
=109	=109	=109	=109	=109	=109	=109	=109	=109
1I	B-:maj	_	.	.	160.15	.	voice	1B- 1dd 1ff
.	.	you!	.	E	.	.	.	.
.	.	_	.	.	.	.	.	.
.	.	.	.	.	.	.	.	.
.	.	.	.	.	.	.	.	.
=110	=110	=110	=110	=110	=110	=110	=110	=110
1I	B-:maj	.	.	.	161.545	.	voice	1B- 1dd 1ff
.	.	.	.	.	.	.	.	.
.	.	_	.	.	.	.	.	.
.	.	Ooh	.	E	.	.	.	.
.	.	_	.	.	.	.	.	.
.	.	_	.	.	.	.	.	.
=111	=111	=111	=111	=111	=111	=111	=111	=111
1I	B-:maj	_	.	.	162.94	.	voice	1B- 1dd 1ff
.	.	_	.	.	.	.	.	.
.	.	_	.	.	.	.	.	.
.	.	_	.	.	.	.	.	.
.	.	.	.	.	.	.	.	.
=112	=112	=112	=112	=112	=112	=112	=112	=112
1I	B-:maj	.	.	.	164.336	.	voice	1B- 1dd 1ff
=113	=113	=113	=113	=113	=113	=113	=113	=113
*>Letter>D	*>Letter>D	*>Letter>D	*>Letter>D	*>Letter>D	*>Letter>D	*>Letter>D	*>Letter>D	*>Letter>D
*>Label>Solo	*>Label>Solo	*>Label>Solo	*>Label>Solo	*>Label>Solo	*>Label>Solo	*>Label>Solo	*>Label>Solo	*>Label>Solo
1vi7	G:min7	.	.	.	165.731	newline	synthesizer	1G 1b- 1dd 1ff
=114	=114	=114	=114	=114	=114	=114	=114	=114
1-VII	A-:maj6(9)	.	.	.	167.155	.	synthesizer	1A- 1cc 1ee-
=115	=115	=115	=115	=115	=115	=115	=115	=115
1I	B-:maj	.	.	.	168.579	.	synthesizer	1B- 1dd 1ff
=116	=116	=116	=116	=116	=116	=116	=116	=116
1r	N	.	.	.	170.003	.	synthesizer	1r
=117	=117	=117	=117	=117	=117	=117	=117	=117
1vi7	G:min7	.	.	.	171.427	newline	synthesizer	1G 1b- 1dd 1ff
=118	=118	=118	=118	=118	=118	=118	=118	=118
1-VII	A-:maj6(9)	.	.	.	172.812	.	synthesizer	1A- 1cc 1ee-
=119	=119	=119	=119	=119	=119	=119	=119	=119
1I	B-:maj	.	.	.	174.198	.	synthesizer	1B- 1dd 1ff
=120	=120	=120	=120	=120	=120	=120	=120	=120
1r	N	.	.	.	175.583	.	synthesizer	1r
=121	=121	=121	=121	=121	=121	=121	=121	=121
1vi7	G:min7	.	.	.	176.969	newline	synthesizer	1G 1b- 1dd 1ff
=122	=122	=122	=122	=122	=122	=122	=122	=122
1-VII	A-:maj6(9)	.	.	.	178.42	.	synthesizer	1A- 1cc 1ee-
=123	=123	=123	=123	=123	=123	=123	=123	=123
*>Letter>B	*>Letter>B	*>Letter>B	*>Letter>B	*>Letter>B	*>Letter>B	*>Letter>B	*>Letter>B	*>Letter>B
*>Label>Verse	*>Label>Verse	*>Label>Verse	*>Label>Verse	*>Label>Verse	*>Label>Verse	*>Label>Verse	*>Label>Verse	*>Label>Verse
1I	B-:maj	Sun	.	.	179.87	newline	voice	1B- 1dd 1ff
.	.	goes	.	.	.	.	.	.
.	.	_	.	.	.	.	.	.
.	.	down	.	.	.	.	.	.
.	.	on	.	.	.	.	.	.
.	.	the	.	.	.	.	.	.
=124	=124	=124	=124	=124	=124	=124	=124	=124
1I	B-:maj	A-	.	.	181.271	.	voice	1B- 1dd 1ff
.	.	-ri-	.	.	.	.	.	.
.	.	-zo-	.	.	.	.	.	.
.	.	-na	.	.	.	.	.	.
.	.	plain,	.	A	.	.	.	.
.	.	_	.	.	.	.	.	.
.	.	and	.	.	.	.	.	.
.	.	the	.	.	.	.	.	.
=125	=125	=125	=125	=125	=125	=125	=125	=125
1IV	E-:sus4(b7,9)	wind	.	.	182.672	.	voice	1E- 1g 1b-
.	.	whis-	.	.	.	.	.	.
.	.	-tles	.	.	.	.	.	.
.	.	by	.	.	.	.	.	.
.	.	like	.	.	.	.	.	.
.	.	a	.	.	.	.	.	.
=126	=126	=126	=126	=126	=126	=126	=126	=126
1IV	E-:sus4(b7,9)	run-	.	.	184.073	.	voice	1E- 1g 1b-
.	.	-a-	.	.	.	.	.	.
.	.	-way	.	.	.	.	.	.
.	.	train,	.	A	.	.	.	.
.	.	_	.	.	.	.	.	.
.	.	_	.	.	.	.	.	.
.	.	a'	.	.	.	.	.	.
.	.	hey	.	A	.	.	.	.
.	.	hey...	.	A	.	.	.	.
=127	=127	=127	=127	=127	=127	=127	=127	=127
1I	B-:maj	.	.	.	185.474	.	voice	1B- 1dd 1ff
=128	=128	=128	=128	=128	=128	=128	=128	=128
1I	B-:maj	.	.	.	186.875	.	voice	1B- 1dd 1ff
.	.	...it's	.	.	.	.	.	.
.	.	a	.	.	.	.	.	.
.	.	beau-	.	.	.	.	.	.
.	.	-ti-	.	.	.	.	.	.
.	.	-ful	.	.	.	.	.	.
.	.	thing	.	B	.	.	.	.
=129	=129	=129	=129	=129	=129	=129	=129	=129
1vi7	G:min7	_	.	.	188.276	.	voice	1G 1b- 1dd 1ff
.	.	.	.	.	.	.	.	.
=130	=130	=130	=130	=130	=130	=130	=130	=130
1-VII	A-:maj(9)	.	.	.	189.677	.	voice	1A- 1cc 1ee-
=131	=131	=131	=131	=131	=131	=131	=131	=131
1-VII	A-:maj(9)	.	.	.	191.078	newline	voice	1A- 1cc 1ee-
=132	=132	=132	=132	=132	=132	=132	=132	=132
1-VII	A-:maj(9)	.	.	.	192.475	.	voice	1A- 1cc 1ee-
=133	=133	=133	=133	=133	=133	=133	=133	=133
1-VII	A-:maj(9)	.	.	.	193.871	.	voice	1A- 1cc 1ee-
=134	=134	=134	=134	=134	=134	=134	=134	=134
*>Letter>A2	*>Letter>A2	*>Letter>A2	*>Letter>A2	*>Letter>A2	*>Letter>A2	*>Letter>A2	*>Letter>A2	*>Letter>A2
*>Label>Chorus	*>Label>Chorus	*>Label>Chorus	*>Label>Chorus	*>Label>Chorus	*>Label>Chorus	*>Label>Chorus	*>Label>Chorus	*>Label>Chorus
1V	F:maj(9)	.	.	.	195.267	newline	voice	1F 1a 1cc
.	.	.	.	.	.	.	.	.
.	.	.	_	.	.	.	.	.
.	.	Wild	Wild	.	.	.	.	.
=135	=135	=135	=135	=135	=135	=135	=135	=135
1V	F:maj(9)	hor-	hor-	.	196.674	.	voice	1F 1a 1cc
.	.	-ses	-ses	.	.	.	.	.
.	.	could	could	.	.	.	.	.
.	.	_	.	.	.	.	.	.
.	.	not	not	.	.	.	.	.
=136	=136	=136	=136	=136	=136	=136	=136	=136
.	.	_	_	.	.	.	.	.
1IV7	E-:maj9(13,#11)	drag	_	.	198.081	.	voice	1E- 1g 1b- 1dd
.	.	me	me	.	.	.	.	.
.	.	_	_	.	.	.	.	.
.	.	a-	a-	.	.	.	.	.
.	.	-way	-way	A	.	.	.	.
=137	=137	=137	=137	=137	=137	=137	=137	=137
1IV7	E-:maj9(13,#11)	_	_	.	199.488	.	voice	1E- 1g 1b- 1dd
.	.	_	.	.	.	.	.	.
.	.	_	.	.	.	.	.	.
.	.	.	.	.	.	.	.	.
.	.	.	.	.	.	.	.	.
.	.	.	.	.	.	.	.	.
.	.	from	.	.	.	.	.	.
=138	=138	=138	=138	=138	=138	=138	=138	=138
.	.	_	.	.	.	.	.	.
1I	B-:maj	you.	.	E	200.894	.	voice	1B- 1dd 1ff
.	.	.	.	.	.	.	.	.
.	.	.	.	.	.	.	.	.
=139	=139	=139	=139	=139	=139	=139	=139	=139
1I	B-:maj	.	.	.	202.301	.	voice	1B- 1dd 1ff
=140	=140	=140	=140	=140	=140	=140	=140	=140
1I	B-:maj	.	.	.	203.708	.	voice	1B- 1dd 1ff
=141	=141	=141	=141	=141	=141	=141	=141	=141
1I	B-:maj	.	.	.	205.115	.	voice	1B- 1dd 1ff
=142	=142	=142	=142	=142	=142	=142	=142	=142
*	*	*	*	*	*	*	*	*
1V	F:maj(9)	.	.	.	206.521	newline	voice	1F 1a 1cc
.	.	.	.	.	.	.	.	.
.	.	_	.	.	.	.	.	.
.	.	Wild	Wild	.	.	.	.	.
=143	=143	=143	=143	=143	=143	=143	=143	=143
1V	F:maj(9)	hor-	hor-	.	207.928	.	voice	1F 1a 1cc
.	.	-ses	-ses	.	.	.	.	.
.	.	could	could	.	.	.	.	.
.	.	_	.	.	.	.	.	.
.	.	not	not	.	.	.	.	.
=144	=144	=144	=144	=144	=144	=144	=144	=144
.	.	_	_	.	.	.	.	.
1IV7	E-:maj9(13,#11)	drag	_	.	209.335	.	voice	1E- 1g 1b- 1dd
.	.	me	me	.	.	.	.	.
.	.	_	_	.	.	.	.	.
.	.	a-	a-	.	.	.	.	.
.	.	-way	-way	A	.	.	.	.
=145	=145	=145	=145	=145	=145	=145	=145	=145
1IV7	E-:maj9(13,#11)	.	.	.	210.743	.	voice	1E- 1g 1b- 1dd
.	.	_	.	.	.	.	.	.
.	.	from	.	.	.	.	.	.
=146	=146	=146	=146	=146	=146	=146	=146	=146
1vi7	G:min7(11)	you!	.	E	212.15	.	voice	1G 1b- 1dd 1ff
.	.	.	.	.	.	.	.	.
=147	=147	=147	=147	=147	=147	=147	=147	=147
1vi7	G:min7(11)	.	.	.	213.557	.	voice	1G 1b- 1dd 1ff
.	.	.	.	.	.	.	.	.
.	.	Ooh	.	E	.	.	.	.
.	.	_	.	.	.	.	.	.
=148	=148	=148	=148	=148	=148	=148	=148	=148
1ii	C:sus4(b7)	_	.	.	214.964	.	voice	1C 1e- 1g
.	.	_	.	.	.	.	.	.
.	.	_	.	.	.	.	.	.
.	.	.	.	.	.	.	.	.
=149	=149	=149	=149	=149	=149	=149	=149	=149
1II7	C:7	.	.	.	216.371	.	voice	1C 1e 1g 1b-
=150	=150	=150	=150	=150	=150	=150	=150	=150
1IV7	E-:maj9	.	.	.	217.778	newline	voice	1E- 1g 1b- 1dd
.	.	.	.	.	.	.	.	.
.	.	_	.	.	.	.	.	.
.	.	Wild	.	.	.	.	.	.
=151	=151	=151	=151	=151	=151	=151	=151	=151
1IV7	E-:maj9	hor-	.	.	219.186	.	voice	1E- 1g 1b- 1dd
.	.	-ses	.	.	.	.	.	.
.	.	could	.	.	.	.	.	.
.	.	_	.	.	.	.	.	.
.	.	not	.	.	.	.	.	.
=152	=152	=152	=152	=152	=152	=152	=152	=152
.	.	_	.	.	.	.	.	.
1V	F:sus4(9)	drag	.	.	220.594	.	voice	1F 1a 1cc
.	.	me	.	.	.	.	.	.
.	.	_	.	.	.	.	.	.
.	.	a-	.	.	.	.	.	.
.	.	-way	.	A	.	.	.	.
=153	=153	=153	=153	=153	=153	=153	=153	=153
1V	F:sus4(9)	_	.	.	222.002	.	voice	1F 1a 1cc
.	.	.	.	.	.	.	.	.
.	.	.	.	.	.	.	.	.
.	.	.	.	.	.	.	.	.
.	.	from	.	.	.	.	.	.
.	.	_	.	.	.	.	.	.
=154	=154	=154	=154	=154	=154	=154	=154	=154
1-VII	A-:maj(9)	_	.	.	223.41	.	voice	1A- 1cc 1ee-
.	.	you!	.	E	.	.	.	.
.	.	_	.	.	.	.	.	.
.	.	_	.	.	.	.	.	.
.	.	.	.	.	.	.	.	.
.	.	.	Ooh	E	.	.	.	.
=155	=155	=155	=155	=155	=155	=155	=155	=155
1-VIIb	A-:maj(9)/3	_	_	.	224.818	.	voice	1a- 1C 1ee-
=156	=156	=156	=156	=156	=156	=156	=156	=156
1-VIIg	A-:maj(9)/6	_	_	.	226.226	.	voice	1A- 1cc 1ee-
=157	=157	=157	=157	=157	=157	=157	=157	=157
1-VIIg	A-:maj(9)/6	_	_	.	227.634	.	voice	1A- 1cc 1ee-
.	.	.	.	.	.	.	.	.
=158	=158	=158	=158	=158	=158	=158	=158	=158
*>Letter>A	*>Letter>A	*>Letter>A	*>Letter>A	*>Letter>A	*>Letter>A	*>Letter>A	*>Letter>A	*>Letter>A
*>Label>Chorus	*>Label>Chorus	*>Label>Chorus	*>Label>Chorus	*>Label>Chorus	*>Label>Chorus	*>Label>Chorus	*>Label>Chorus	*>Label>Chorus
1V	F:maj(9)	.	.	.	229.042	newline	synthesizer	1F 1a 1cc
=159	=159	=159	=159	=159	=159	=159	=159	=159
1V	F:maj(9)	.	.	.	230.446	.	synthesizer	1F 1a 1cc
=160	=160	=160	=160	=160	=160	=160	=160	=160
1IV7	E-:maj9(13,#11)	.	.	.	231.849	.	synthesizer	1E- 1g 1b- 1dd
=161	=161	=161	=161	=161	=161	=161	=161	=161
1IV7	E-:maj9(13,#11)	.	.	.	233.252	.	synthesizer	1E- 1g 1b- 1dd
=162	=162	=162	=162	=162	=162	=162	=162	=162
1I	B-:maj	.	.	.	234.656	.	synthesizer	1B- 1dd 1ff
=163	=163	=163	=163	=163	=163	=163	=163	=163
1I	B-:maj	.	.	.	236.059	.	synthesizer	1B- 1dd 1ff
=164	=164	=164	=164	=164	=164	=164	=164	=164
1I	B-:maj	.	.	.	237.463	.	synthesizer	1B- 1dd 1ff
=165	=165	=165	=165	=165	=165	=165	=165	=165
1I	B-:maj	.	.	.	238.866	.	synthesizer	1B- 1dd 1ff
=166	=166	=166	=166	=166	=166	=166	=166	=166
1V	F:maj(9)	.	.	.	240.269	newline	synthesizer	1F 1a 1cc
.	.	.	.	.	.	.	.	.
.	.	_	_	.	.	.	.	.
.	.	Wild	Wild	.	.	.	.	.
=167	=167	=167	=167	=167	=167	=167	=167	=167
1V	F:maj(9)	hor-	hor-	.	241.678	.	synthesizer	1F 1a 1cc
.	.	-ses	-ses...	.	.	.	.	.
.	.	could-	.	.	.	.	.	.
.	.	-n't	.	.	.	.	.	.
=168	=168	=168	=168	=168	=168	=168	=168	=168
1IV7	E-:maj9(13,#11)	drag	.	.	243.087	.	synthesizer	1E- 1g 1b- 1dd
.	.	me	.	.	.	.	.	.
.	.	_	.	.	.	.	.	.
.	.	a-	.	.	.	.	.	.
.	.	-way	.	A	.	.	.	.
=169	=169	=169	=169	=169	=169	=169	=169	=169
1IV7	E-:maj9(13,#11)	_	.	.	244.496	.	synthesizer	1E- 1g 1b- 1dd
.	.	_	.	.	.	.	.	.
.	.	_	.	.	.	.	.	.
.	.	_	.	.	.	.	.	.
.	.	from	.	.	.	.	.	.
=170	=170	=170	=170	=170	=170	=170	=170	=170
1I	B-:maj	you!	.	E	245.905	.	synthesizer	1B- 1dd 1ff
.	.	.	.	.	.	.	.	.
.	.	.	.	.	.	.	.	.
=171	=171	=171	=171	=171	=171	=171	=171	=171
1I	B-:maj	.	.	.	247.313	.	synthesizer	1B- 1dd 1ff
=172	=172	=172	=172	=172	=172	=172	=172	=172
1I	B-:maj	.	.	.	248.722	.	synthesizer	1B- 1dd 1ff
=173	=173	=173	=173	=173	=173	=173	=173	=173
1I	B-:maj	.	.	.	250.131	.	synthesizer	1B- 1dd 1ff
=174	=174	=174	=174	=174	=174	=174	=174	=174
1V	F:maj(9)	.	.	.	251.54	newline	synthesizer	1F 1a 1cc
=175	=175	=175	=175	=175	=175	=175	=175	=175
1V	F:maj(9)	.	.	.	252.942	.	synthesizer	1F 1a 1cc
.	.	Could	.	.	.	.	.	.
.	.	not	.	.	.	.	.	.
=176	=176	=176	=176	=176	=176	=176	=176	=176
.	.	_	.	.	.	.	.	.
1IV7	E-:maj9(13,#11)	_	.	.	254.343	.	synthesizer	1E- 1g 1b- 1dd
.	.	me	.	.	.	.	.	.
.	.	_	.	.	.	.	.	.
.	.	a-	.	.	.	.	.	.
.	.	-way	.	A	.	.	.	.
=177	=177	=177	=177	=177	=177	=177	=177	=177
1IV7	E-:maj9(13,#11)	.	.	.	255.745	.	synthesizer	1E- 1g 1b- 1dd
.	.	.	.	.	.	.	.	.
.	.	from	.	.	.	.	.	.
=178	=178	=178	=178	=178	=178	=178	=178	=178
1I	B-:maj	you!	.	E	257.146	.	synthesizer	1B- 1dd 1ff
.	.	_	.	.	.	.	.	.
.	.	_	.	.	.	.	.	.
=179	=179	=179	=179	=179	=179	=179	=179	=179
1I	B-:maj	.	.	.	258.548	.	synthesizer	1B- 1dd 1ff
=180	=180	=180	=180	=180	=180	=180	=180	=180
1I	B-:maj	.	.	.	259.949	.	synthesizer	1B- 1dd 1ff
=181	=181	=181	=181	=181	=181	=181	=181	=181
1I	B-:maj	.	.	.	261.351	.	synthesizer	1B- 1dd 1ff
=182	=182	=182	=182	=182	=182	=182	=182	=182
*>Label>>Fadeout	*>Label>>Fadeout	*>Label>>Fadeout	*>Label>>Fadeout	*>Label>>Fadeout	*>Label>>Fadeout	*>Label>>Fadeout	*>Label>>Fadeout	*>Label>>Fadeout
1V	F:maj(9)	.	.	.	262.753	newline	synthesizer	1F 1a 1cc
=183	=183	=183	=183	=183	=183	=183	=183	=183
1V	F:maj(9)	.	.	.	264.161	.	synthesizer	1F 1a 1cc
*-	*-	*-	*-	*-	*-	*-	*-	*-
!!!BillboardChartDate: 1987/05/16
!!!BillboardPeak: 55
!!!BillboardWeeksOnChart: 15
!!!COC: Gino Vannelli
!!!ENC: Nathaniel Condit-Schultz
!!!EST: Awating manual error checking and editing.
!!!OTL: Wild Horses
!!!RDF**harte: Chris Harte's syntax, used by MIREX
!!!RDF**harmony: **recip + pitch class of root + harmonic quality
!!!RDF**leadinstrument: original McGill primary instrumentation annotation
!!!RDF**phrase: newline = linebreak in original McGill transcription
!!!RDF**timestamp: McGill audio timestamp in seconds
!!!RDT: 2017/01/12/
!!!SampleActualRank: 72
!!!SampleID#: 0407
!!!SampleTargetRank: 71
!!!MBID: 5b87c7cd-5f04-4409-8f67-7cc51cdfdf7e
